X:1 
T:Mick Finn's 
T:The Killavil
S:&quot;Naomh Padhraic,&quot; the winner of the senior ceili band competition in 2004 
Z:Jack Gilder
M:4/4 
L:1/8 R:Reel 
K:D 
D2AD BDAD|D2AD BDAD|E2BE dEBE|BABc dBAF |
D2AD BDAD|D2AD BDAD|GFEF GABc|1 dfed BAFE:|2 dfed BAFA||
d2fd adfd|g2fg edBc|d2fd adfd|g2fg e2fe|
d2fd adfd|g2fg edBc|dBBA Bcde|1 fdec dBAB:|2 fdec dBAF||
